!!!OTL: Wuge fangyang
!!!ARE: Asia, China,ÿNingxia, Yinchuan
!! I, 192
!!!SCT: C1429
!!!YEM: Copyright 1995, estate of Helmut Schaffrath.
**kern
*ICvox
*Ivox
*M3/8
*k[b-]
*F:
{8f
8d
8d
=1
4.dd
=2
4.dd
=3
8dd
8dd
8ff
=4
4.dd}
=5
{4dd
16dd
16cc
=6
4.a
=7
4cc
8a
=8
4g
8f
=9
4.d}
=10
{4g
16g
16a
=11
4dd
16dd
16cc
=12
4a
8cc
=13
4a
8g}
=14
{4g
16f
16g
=15
4.a
=16
4cc
8a
=17
4g
8f
=18
4.d}
==
!!!AGN: Xiaodiao, Biaoda aiqing
!!!ONB: ESAC (Essen Associative Code) Database: HUANG
!!!AMT: simple triple
!!!AIN: vox
!!!EED: Helmut Schaffrath
!!!EEV: 1.0
*-
